!!!!SEGMENT: pl-sa--575-a-ix-55--001_anonim--pollonaise.krn
!!!cenid: 18xx:615
!!!COM: Anonim
!!!COM-rismID: pe30004985
!!!CDT:
!!!CNT:
!!!OTL: Pollonaise
!!!PDT:
!!!AGN: Secular; Polonaise
!!!YEC: Copyright 2022 Narodowy Instytut Fryderyka Chopina (https://polishscores.org)
!!!YEM: License CC-BY-4.0 (https://creativecommons.org/licenses/by/4.0)
!!!SMS-siglum: PL-SA
!!!SMS-shelfmark: 575/A IX 55
!!!SMS-shelfwork: 001 W
!!!SMS-variant:
!!!SMS-altvar:
!!!NIFC-rismSourceID: 1001077559
!!!NIFC-rismChildID: 1001077559
!!!NIFC-islandoraID: none
!!!URL-pdf-islandora:
!!!URL-scan: https://bc.bdsandomierz.pl/dlibra/publication/1381/edition/1349/content @EN{Scan in the Sandomierz Diocese Digital Library} @PL{Skany w portalu Cyfrowa Biblioteka Diecezjalna w Sandomierzu}
!!!IIIF:
!!!ONB-nifc: Str. 1, s. 1-4
!!!AIN: 1 piano
!!!key:
**kern	**kern
*part1	*part1
*staff2	*staff1
*Ipiano	*Iempty
*I"Pianoforte	*
*I'P-no	*
*clefF4	*clefG2
*k[b-]	*k[b-]
*F:	*F:
*M3/4	*M3/4
*>[A,A,B,B,A,B,C,C,D,D,C,D]	*>[A,A,B,B,A,B,C,C,D,D,C,D]
=1	=1
*>A	*>A
!	!LO:TX:b:i:t=Pollo&colon;
.	8qcc/
8CL 8AA/	4.aa\
8E/J	.
*rep	*
8CL 8AA/	.
!	!LO:TUP:a
8E/J	24gg\LL
.	24ff\
.	24gg\JJ
*Xrep	*
*rep	*
8CL 8AA/	8ff\L
8E/J	8ff\J
*Xrep	*
=2	=2
8C 8AA/	16ee\LL
.	16gg\
4r	16aa\
.	16bb-\JJ
.	4.ccc\
8AA/L	.
8C/	.
8AA/J	8aa\
=3	=3
8GGL 8EE/	4.gg 4.ee\
8BB-/J	.
*rep	*
8GGL 8EE/	.
!	!LO:TUP:a
8BB-/J	24ffLL 24dd\
.	24ee 24cc\
.	24ffJJ 24dd\
*Xrep	*
*rep	*
8GGL 8EE/	8eeL 8cc\
8BB-/J	8eeJ 8cc\
*Xrep	*
=4	=4
4GG 4EE/	8.eeL 8.cc\
.	16ff\Jk
4r	16ggLL 16ee\
.	16aa\J
.	8aa\J
4C#X/	8bb-L 8ggT\
.	8ggJ 8ee\
=5	=5
16D\LL	4.ff 4.a\
16A\	.
16F\	.
16A\JJ	.
*rep	*
16D\LL	.
16A\	.
!	!LO:TUP:a
16F\	24ee\LL
.	24dd\
16A\JJ	.
.	24ee\JJ
*Xrep	*
*rep	*
16D\LL	8dd\L
16A\	.
16F\	8dd\J
16A\JJ	.
*Xrep	*
=6	=6
4D\	16dd\LL
.	16ee\
.	16ff\
.	16gg\JJ
8r	4.aa\
8D\L	.
8F\	.
8D\J	8ff\
=7	=7
*tremolo	*
!LO:TX:a:t=P:problem=mixed beam	!
8AA/L	4.ee 4.a\
8A\	.
8AA/	.
8A\	8ffL 8a\
8AA/	8ee 8a\
8A\J	8ffJ 8a\
*Xtremolo	*
=8	=8
4AA/	8eeL 8a\
.	8aa\J
4E 4C 4AA/	8.aa\L
.	16bb-\Jk
4r	16aa\LL
.	16gg\
.	16ff\
.	16ee\JJ
=9	=9
16D\LL	4.ff 4.a\
16A\	.
16F\	.
16A\JJ	.
*rep	*
16D\LL	.
16A\	.
!	!LO:TUP:a
16F\	24ee\LL
.	24dd\
16A\JJ	.
.	24ee\JJ
*Xrep	*
*rep	*
16D\LL	8dd\L
16A\	.
16F\	8dd\J
16A\JJ	.
*Xrep	*
=10	=10
4D\	16dd\LL
.	16ee\
.	16ff\
.	16gg\JJ
!	!LO:N:vis=4
8r	4.aa\
8D\L	.
8F\	.
8D\J	8ff\
=	=
.	8qff/
8C#X\L	8ee\
!	!LO:N:vis=4
8E\J	4.ee\
*rep	*
8C#\L	.
8E\J	.
*Xrep	*
*rep	*
8C#\L	8cc#X\L
8E\J	8a\J
*Xrep	*
*rep	*
8C#\L	8ee\L
8E\J	16cc#\L
.	16a\JJ
*Xrep	*
!!LO:LB:g=original
=11	=11
8F\L	8dd\L
8G\J	16ff\L
.	16ee\JJ
.	8qee/
*	*2\right
8r	2dd\
8AA/	.
4D\	.
=12:|!|:	=12:|!|:
*>B	*>B
.	8qa/
4A 4AA/	8ff\L
.	8ff\J
8r	4.ee-X\
8AL 8AA/	.
8A 8AA/	.
8AJ 8AA/	8cc\
=13	=13
4B- 4BB-/	8dd\L
.	8bb-X\J
4B- 4BB-/	8bb-\L
.	8aa\J
4r	8ff#X\L
.	8gg\J
=14	=14
8r	8gg\L
8Bn 8BBn/	8gg\J
*tremolo	*
8B 8BB/L	4.ffn\
8B 8BB/	.
8B 8BB/	.
8B 8BB/J	8dd\
*Xtremolo	*
=15	=15
4c 4C\	8ee\L
.	8gg\J
4c 4C\	8.ccc\L
.	16bbn\Jk
!	!LO:TX:b:i:t=Pollonaſe Da Capo
4r	8.bb-X\L
.	16gg\Jk
!!LO:LB:g=original
=16:|!	=16:|!
*>C	*>C
!	!LO:TX:b:i:t=Trio&colon;
8F\L	8f\L
8F\	8f\
8A\	8a\
8A\	8a\
8c\	8cc\
8A\J	8a\J
=17	=17
4F\	16ff\LL
.	16aa\J
.	8aat\J
8r	4.gg 4.ee\
!LO:TX:a:t=P:problem=mixed beam	!
8c\L	.
8C/	.
8c\J	8ff 8dd\
=18	=18
8c\L	8cc\L
8c\J	8cc\J
8.e>\L	8ee\L
.	8ee\J
16e>\Jk	.
8g>\L	8gg\L
8e>\J	8ee\J
=19	=19
4c\	16gg\LL
.	16bb-\J
.	8bb-T\J
8r	4.aa\
8f\L	.
8f\	.
8f\J	8r
=20	=20
.	8qff/
4d\	4aa\
*	*Xtuplet
!	!LO:N:vis=24
4f\	12fff\L
!	!LO:N:vis=24
.	12eee\
!	!LO:N:vis=24
.	12ddd\J
4d\	16ccc#X\LL
.	16ddd\J
.	8eee\J
*clefG2	*
=21	=21
8c#X/	8eee\L
4r	8aa#\J
.	4.aa#\
8eL 8c#/	.
8f 8d/	.
8gJ 8e/	8gg\
=22	=22
8fL 8d/	8ff\L
8a/J	8.aa\J
*rep	*
8fL 8d/	.
.	16fff\LL
8a/J	16eee\
.	16ddd\JJ
*Xrep	*
*rep	*
8fL 8d/	16ccc\LL
.	16ddd\J
8a/J	8ddd\J
*Xrep	*
=23	=23
4a 4e 4c#X/	8eee\L
.	8ccc#X\J
8r	4.aa\
8eL 8c#/	.
8f 8d/	.
8gJ 8e/	8gg\
=24	=24
8f/L	8ff\L|
8d/	8ff\J
8e/	16gg\LL
.	16aa\J
8f/J	8aa\J
4g/	4bb-\
=25	=25
4a/	16aa\LL
.	16gg\
.	16ee\
.	16cc#X\JJ
8r	4ee\
8A/	.
4d/	8dd\
.	8r
!!LO:LB:g=original
=26:|!|:	=26:|!|:
*>D	*>D
*clefF4	*
8r	8cc\L
8A 8F\	8cc\J
*tremolo	*
*2\right	*
8A 8F\L	4.ff\
8A 8F\	.
8A 8F\	.
*	*tuplet
!	!LO:TUP:a
8A 8F\J	24ee-X\LL
.	24dd\
.	24cc\JJ
*Xtremolo	*
=27	=27
8r	16cc#X\LL
.	16dd\JJ
8B-\L	4dd\
8B-\	.
8e\J	8a\
4d\	4b-\
=28	=28
8r	8cc#X\L
!LO:TX:a:t=P:problem=mixed beam	!
8B-\L	8.dd\J
8BB-/	.
.	16gg\LL
8B-\	16bb-\
.	16aa\JJ
8BBn/	8gg\L
8Bny\J	8ff\J
=29	=29
4c\	8.ffL 8.cc\
.	16ee\Jk
8r	4ee 4cc\
8c\	.
!	!LO:TX:b:i:t=Trio Da Capo&colon;
4C/	4r
==	==
*-	*-
!!!system-decoration: {s1,s2}
!!!RDF**kern: > = above
!!!RDF**kern: | = vertical stroke
!!!ENC: Marta Lawrence
!!!END: 2020-12-12
!!!ENC: Tomasz Grochalski
!!!END: 2020-06-19
